X:1
T:[ID 6-50]
T:[ID 6-50]
T:Bezeichnung standardisiert: Menuet [mit Trio] Menuet Con Trio 21.
T:Urheber unbekannt Datum in der hier transkribierten schriftlichen Quelle: 1775
C:Urheber unbekannt
C:Datum in der hier transkribierten schriftlichen Quelle: 1775
L:1/8
M:3/4
K:G
V:1 treble 
V:1
 B,4 G>B, | B>GB>BG>B, | F4 D>F | F>DA>FD>F | B,4 G>B, | B>GB>BG>B, | F>G A2 G2 |{G} F4 z2 :: %8
 B4 Bd | (gB)(BA)(AG) | A4 dA | fAAGGF | G3 BcB | B3 BcB | A2 G2 D2 | B,4 B,2 :| %16
[M:3/4]"^Trio" !fermata!B4 (3cBA | G4 (3AGF | B,4 (3CB,A, | B,4 z2 | FG A2 G2 | GF F4 | GA B2 A2 | %23
 G4 z2 :: c4 (3dcB | c4 z2 | B4 (3cBA | B4 z2 | A4 G2 | F4 B,2 | DFFAAG | F4 z2 | B4 (3ABc | %33
 B4 A2 | GFGB,DC | B,6 :| %36

